icons/plexis/48/cmake.svg

<svg viewBox="0 0 48 48" xmlns="http://www.w3.org/2000/svg" xmlns:xlink="http://www.w3.org/1999/xlink">
  <linearGradient id="a" gradientTransform="matrix(0 -1 1 0 -.0000015 47.999998)" gradientUnits="userSpaceOnUse" x1="1" x2="47">
    <stop offset="0" stop-color="#333"/>
    <stop offset="1" stop-color="#3d3d3d"/>
  </linearGradient>
  <path d="m47 24c0 22.703-.297 23-23 23-22.703 0-23-.297-23-23 0-22.703.297-23 23-23 22.703 0 23 .297 23 23z" fill="url(#a)"/>
  <path d="m25 12l-12 24h24" opacity=".1" transform=""/>
  <path d="m20.254 19h7.488c.145 0 .258.09.258.203v9.594c0 .109-.113.203-.258.203h-7.488c-.141 0-.254-.094-.254-.203v-9.594c0-.113.113-.203.254-.203m0 0" fill="#dedede"/>
  <path d="m26 29l10 6-12-24m2 18" fill="#eb2035"/>
  <path d="m12 35h24l-16-10m-8 10" fill="#49cf3d"/>
  <path d="m24 11l1 8.422-13 15.578m12-24" fill="#3db2cc"/>
</svg>

<svg xmlns="http://www.w3.org/2000/svg" viewBox="0 0 48 48">
 <defs>
  <linearGradient id="linearGradient3764" x1="1" x2="47" gradientUnits="userSpaceOnUse" gradientTransform="matrix(0,-1,1,0,-1.5e-6,47.999998)">
   <stop style="stop-color:#333;stop-opacity:1"/>
   <stop offset="1" style="stop-color:#3d3d3d;stop-opacity:1"/>
  </linearGradient>
 </defs>
 <g>
  
  
  
 </g>
 <g>
  <path d="m 47,24 C 47,46.703 46.703,47 24,47 1.297,47 1,46.703 1,24 1,1.297 1.297,1 24,1 46.703,1 47,1.297 47,24 z" style="fill:url(#linearGradient3764);fill-opacity:1"/>
 </g>
 <g>
  <g>
   <g transform="translate(1,1)">
    <g style="opacity:0.1">
     <!-- color: #3d3d3d -->
     <g>
      <path d="m 25 12 -12 24 24 0" transform="translate(-1,-1)"/>
     </g>
    </g>
   </g>
  </g>
 </g>
 <g>
  <g>
   <!-- color: #3d3d3d -->
   <g>
    <path d="m 20.254,19 7.488,0 C 27.887,19 28,19.09 28,19.203 l 0,9.594 C 28,28.906 27.887,29 27.742,29 l -7.488,0 C 20.113,29 20,28.906 20,28.797 l 0,-9.594 C 20,19.09 20.113,19 20.254,19 m 0,0" style="fill:#dedede;fill-opacity:1;stroke:none;fill-rule:nonzero"/>
    <path d="M 26,29 36,35 24,11 m 2,18" style="fill:#eb2035;fill-opacity:1;stroke:none;fill-rule:nonzero"/>
    <path d="M 12,35 36,35 20,25 m -8,10" style="fill:#49cf3d;fill-opacity:1;stroke:none;fill-rule:nonzero"/>
    <path d="M 24,11 25,19.422 12,35 M 24,11" style="fill:#3db2cc;fill-opacity:1;stroke:none;fill-rule:nonzero"/>
   </g>
  </g>
 </g>
 <g>
  
 </g>
</svg>
